file/metlife.svg

<svg clip-rule="evenodd" fill-rule="evenodd" stroke-linejoin="round" stroke-miterlimit="1.41421" viewBox="0 0 560 400" xmlns="http://www.w3.org/2000/svg"><g fill-rule="nonzero" transform="matrix(1.08381 0 0 1.08381 63.25 37.4508)"><path d="m216.8 107.2c0-.8.2-1.7.5-2.5.4-.8.9-1.6 1.6-2.3s1.5-1.3 2.6-1.8c1-.5 2.2-.7 3.6-.7s2.5.2 3.5.7 1.8 1.1 2.5 1.8 1.1 1.5 1.5 2.3c.3.9.5 1.7.5 2.5zm21.8 11.7c-.9.7-2.3 1.4-4.2 2.3s-4.4 1.4-7.5 1.4-5.6-.8-7.4-2.3c-1.8-1.6-2.7-3.4-2.8-5.5h27.5v-2c0-3.2-.4-6.2-1.2-8.9s-2-5-3.7-7c-1.6-1.9-3.6-3.5-6-4.6s-5.1-1.6-8.2-1.6-5.9.6-8.4 1.7-4.5 2.6-6.2 4.5-3 4-3.9 6.5-1.4 5.1-1.4 7.8c0 3.1.5 5.9 1.4 8.4 1 2.5 2.4 4.7 4.2 6.5s4.1 3.2 6.7 4.2 5.6 1.5 8.9 1.5c2.5 0 4.7-.2 6.6-.7s3.6-1 5-1.6 2.5-1.2 3.4-1.8 1.5-1.1 2-1.4zm-131 1.4c-.8.5-1.6 1-2.5 1.4s-1.9.6-3.1.6c-1.6 0-2.8-.5-3.5-1.5s-1.1-2.5-1.1-4.3v-15.2h9.9v-9.3h-9.9v-10.3h-11.9v10.3h-6.1v9.3h6.1v14.5c0 2.4.2 4.6.7 6.6s1.3 3.7 2.5 5.1c1.1 1.4 2.7 2.5 4.5 3.3 1.9.8 4.2 1.2 6.9 1.2 4.4 0 8.4-1.5 12.2-4.4zm102.4-42c-1.8-1.5-3.7-2.5-5.8-3.1s-4.2-.9-6.3-.9c-2 0-3.9.3-5.8.9s-3.6 1.6-5.1 2.9-2.7 2.9-3.6 4.9-1.4 4.3-1.4 7.1v2h-6.2v9.3h6.2v29.3h11.8v-29.3h9.1v-9.4h-9.1v-2.1c0-1.9.5-3.4 1.5-4.4s2.3-1.6 3.9-1.6c1 0 2.1.2 3 .5 1 .3 1.9.8 2.7 1.4zm-52 52.3h11.8v-38.6h-5.9-5.9zm-41.2 0h36.1v-10.2h-23.6v-44.7h-12.4v54.9zm-67.7-23.4c0-.8.2-1.7.5-2.5.4-.8.9-1.6 1.6-2.3s1.5-1.3 2.6-1.8c1-.5 2.2-.7 3.6-.7s2.5.2 3.5.7 1.8 1.1 2.5 1.8 1.2 1.5 1.5 2.3c.3.9.5 1.7.5 2.5zm21.8 11.7c-.9.7-2.3 1.4-4.2 2.3s-4.4 1.4-7.5 1.4-5.6-.8-7.4-2.3c-1.8-1.6-2.7-3.4-2.8-5.5h27.5v-2c0-3.2-.4-6.2-1.2-8.9s-2-5-3.7-7c-1.6-1.9-3.6-3.5-6-4.6s-5.1-1.6-8.2-1.6-5.9.6-8.4 1.7-4.5 2.6-6.2 4.5-3 4-3.9 6.5-1.4 5.1-1.4 7.8c0 3.1.5 5.9 1.4 8.4 1 2.5 2.4 4.7 4.2 6.5s4.1 3.2 6.7 4.2 5.6 1.5 8.9 1.5c2.5 0 4.7-.2 6.6-.7s3.6-1 5-1.6 2.5-1.2 3.4-1.8 1.5-1.1 2-1.4zm-95.2 11.7h11.8l1.4-35.6 12 21.1h6.4l11.3-21.4 1.6 35.8h12.4l-2.5-54.8h-11.9l-14 25.7-14.2-25.7h-11.8zm188.2-43c-3.7 0-6.7-3-6.7-6.7s3-6.7 6.7-6.7 6.7 2.9 6.7 6.7c0 3.7-3 6.7-6.7 6.7" transform="translate(149.079 47.5818)"/><path d="m51.8 135.4c9.3 12.3 14.8 27.7 14.8 44.3 0 4-.3 8-.9 11.8h27c2.3 0 4.2-1.9 4.2-4.3v-74.5c0-2.8-2.6-4.8-5.3-4.1-16.1 4.3-30.1 13.9-39.8 26.8" fill="#99d538"/><path d="m37.9 191.5c-.6-3.8-.9-7.8-.9-11.8 0-16.6 5.5-32 14.8-44.3-9.8-12.9-23.7-22.5-39.8-26.8-2.7-.7-5.3 1.3-5.3 4.1v74.5c0 2.3 1.9 4.3 4.2 4.3z" fill="#239de0"/><path d="m51.8 135.4c-9.3 12.3-14.8 27.7-14.8 44.3 0 4 .3 8 .9 11.8h27.8c.6-3.8.9-7.8.9-11.8 0-16.6-5.5-32-14.8-44.3" fill="#1563a9"/></g></svg>

<?xml version="1.0" encoding="UTF-8" standalone="no"?>
<!DOCTYPE svg PUBLIC "-//W3C//DTD SVG 1.1//EN" "http://www.w3.org/Graphics/SVG/1.1/DTD/svg11.dtd">
<svg width="100%" height="100%" viewBox="0 0 560 400" version="1.1" xmlns="http://www.w3.org/2000/svg" xmlns:xlink="http://www.w3.org/1999/xlink" xml:space="preserve" xmlns:serif="http://www.serif.com/" style="fill-rule:evenodd;clip-rule:evenodd;stroke-linejoin:round;stroke-miterlimit:1.41421;">
    <g transform="matrix(1.08381,0,0,1.08381,63.25,37.4508)">
        <g id="logo_4_" transform="matrix(1,0,0,1,149.079,47.5818)">
            <path d="M216.8,107.2C216.8,106.4 217,105.5 217.3,104.7C217.7,103.9 218.2,103.1 218.9,102.4C219.6,101.7 220.4,101.1 221.5,100.6C222.5,100.1 223.7,99.9 225.1,99.9C226.5,99.9 227.6,100.1 228.6,100.6C229.6,101.1 230.4,101.7 231.1,102.4C231.8,103.1 232.2,103.9 232.6,104.7C232.9,105.6 233.1,106.4 233.1,107.2L216.8,107.2ZM238.6,118.9C237.7,119.6 236.3,120.3 234.4,121.2C232.5,122.1 230,122.6 226.9,122.6C223.8,122.6 221.3,121.8 219.5,120.3C217.7,118.7 216.8,116.9 216.7,114.8L244.2,114.8L244.2,112.8C244.2,109.6 243.8,106.6 243,103.9C242.2,101.2 241,98.9 239.3,96.9C237.7,95 235.7,93.4 233.3,92.3C230.9,91.2 228.2,90.7 225.1,90.7C222,90.7 219.2,91.3 216.7,92.4C214.2,93.5 212.2,95 210.5,96.9C208.8,98.8 207.5,100.9 206.6,103.4C205.7,105.9 205.2,108.5 205.2,111.2C205.2,114.3 205.7,117.1 206.6,119.6C207.6,122.1 209,124.3 210.8,126.1C212.6,127.9 214.9,129.3 217.5,130.3C220.1,131.3 223.1,131.8 226.4,131.8C228.9,131.8 231.1,131.6 233,131.1C234.9,130.6 236.6,130.1 238,129.5C239.4,128.9 240.5,128.3 241.4,127.7C242.3,127.1 242.9,126.6 243.4,126.3L238.6,118.9ZM107.6,120.3C106.8,120.8 106,121.3 105.1,121.7C104.2,122.1 103.2,122.3 102,122.3C100.4,122.3 99.2,121.8 98.5,120.8C97.8,119.8 97.4,118.3 97.4,116.5L97.4,101.3L107.3,101.3L107.3,92L97.4,92L97.4,81.7L85.5,81.7L85.5,92L79.4,92L79.4,101.3L85.5,101.3L85.5,115.8C85.5,118.2 85.7,120.4 86.2,122.4C86.7,124.4 87.5,126.1 88.7,127.5C89.8,128.9 91.4,130 93.2,130.8C95.1,131.6 97.4,132 100.1,132C104.5,132 108.5,130.5 112.3,127.6L107.6,120.3ZM210,78.3C208.2,76.8 206.3,75.8 204.2,75.2C202.1,74.6 200,74.3 197.9,74.3C195.9,74.3 194,74.6 192.1,75.2C190.2,75.8 188.5,76.8 187,78.1C185.5,79.4 184.3,81 183.4,83C182.5,85 182,87.3 182,90.1L182,92.1L175.8,92.1L175.8,101.4L182,101.4L182,130.7L193.8,130.7L193.8,101.4L202.9,101.4L202.9,92L193.8,92L193.8,89.9C193.8,88 194.3,86.5 195.3,85.5C196.3,84.5 197.6,83.9 199.2,83.9C200.2,83.9 201.3,84.1 202.2,84.4C203.2,84.7 204.1,85.2 204.9,85.8L210,78.3ZM158,130.6L169.8,130.6L169.8,92L163.9,92L158,92L158,130.6ZM116.8,130.6L152.9,130.6L152.9,120.4L129.3,120.4L129.3,75.7L116.9,75.7L116.9,130.6L116.8,130.6ZM49.1,107.2C49.1,106.4 49.3,105.5 49.6,104.7C50,103.9 50.5,103.1 51.2,102.4C51.9,101.7 52.7,101.1 53.8,100.6C54.8,100.1 56,99.9 57.4,99.9C58.8,99.9 59.9,100.1 60.9,100.6C61.9,101.1 62.7,101.7 63.4,102.4C64.1,103.1 64.6,103.9 64.9,104.7C65.2,105.6 65.4,106.4 65.4,107.2L49.1,107.2ZM70.9,118.9C70,119.6 68.6,120.3 66.7,121.2C64.8,122.1 62.3,122.6 59.2,122.6C56.1,122.6 53.6,121.8 51.8,120.3C50,118.7 49.1,116.9 49,114.8L76.5,114.8L76.5,112.8C76.5,109.6 76.1,106.6 75.3,103.9C74.5,101.2 73.3,98.9 71.6,96.9C70,95 68,93.4 65.6,92.3C63.2,91.2 60.5,90.7 57.4,90.7C54.3,90.7 51.5,91.3 49,92.4C46.5,93.5 44.5,95 42.8,96.9C41.1,98.8 39.8,100.9 38.9,103.4C38,105.9 37.5,108.5 37.5,111.2C37.5,114.3 38,117.1 38.9,119.6C39.9,122.1 41.3,124.3 43.1,126.1C44.9,127.9 47.2,129.3 49.8,130.3C52.4,131.3 55.4,131.8 58.7,131.8C61.2,131.8 63.4,131.6 65.3,131.1C67.2,130.6 68.9,130.1 70.3,129.5C71.7,128.9 72.8,128.3 73.7,127.7C74.6,127.1 75.2,126.6 75.7,126.3L70.9,118.9ZM-24.3,130.6L-12.5,130.6L-11.1,95L0.9,116.1L7.3,116.1L18.6,94.7L20.2,130.5L32.6,130.5L30.1,75.7L18.2,75.7L4.2,101.4L-10,75.7L-21.8,75.7L-24.3,130.6ZM163.9,87.6C160.2,87.6 157.2,84.6 157.2,80.9C157.2,77.2 160.2,74.2 163.9,74.2C167.6,74.2 170.6,77.1 170.6,80.9C170.6,84.6 167.6,87.6 163.9,87.6" style="fill-rule:nonzero;"/>
        </g>
        <path id="logo_3_" d="M51.8,135.4C61.1,147.7 66.6,163.1 66.6,179.7C66.6,183.7 66.3,187.7 65.7,191.5L92.7,191.5C95,191.5 96.9,189.6 96.9,187.2L96.9,112.7C96.9,109.9 94.3,107.9 91.6,108.6C75.5,112.9 61.5,122.5 51.8,135.4" style="fill:rgb(153,213,56);fill-rule:nonzero;"/>
        <path id="logo_2_" d="M37.9,191.5C37.3,187.7 37,183.7 37,179.7C37,163.1 42.5,147.7 51.8,135.4C42,122.5 28.1,112.9 12,108.6C9.3,107.9 6.7,109.9 6.7,112.7L6.7,187.2C6.7,189.5 8.6,191.5 10.9,191.5L37.9,191.5Z" style="fill:rgb(35,157,224);fill-rule:nonzero;"/>
        <path id="logo_1_" d="M51.8,135.4C42.5,147.7 37,163.1 37,179.7C37,183.7 37.3,187.7 37.9,191.5L65.7,191.5C66.3,187.7 66.6,183.7 66.6,179.7C66.6,163.1 61.1,147.7 51.8,135.4" style="fill:rgb(21,99,169);fill-rule:nonzero;"/>
    </g>
</svg>
